outputs/icons/file/finished_download_sharp.svg

<svg xmlns="http://www.w3.org/2000/svg" width="1200" height="1200" fill="none"><g clip-path="url(#a)"><path fill="#000" d="M250 900h700v100H250zm230-135L250 535l100-95 130 130 370-370 100 100z"/></g><defs><clipPath id="a"><path fill="#fff" d="M0 0h1200v1200H0z"/></clipPath></defs></svg>

<svg width="1200" height="1200" viewBox="0 0 1200 1200" fill="none" xmlns="http://www.w3.org/2000/svg"><g clip-path="url(#clip0_124_958)"><path d="M250 900H950V1000H250V900ZM480 765L250 535L350 440L480 570L850 200L950 300L480 765Z" fill="black"/></g><defs><clipPath id="clip0_124_958"><path width="24" fill="white" d="M0 0H1200V1200H0V0z"/></clipPath></defs></svg>
